images/50907407.svg

<?xml version="1.0" encoding="UTF-8"?>
<svg xmlns="http://www.w3.org/2000/svg" xmlns:xlink="http://www.w3.org/1999/xlink" width="300pt" height="300pt" viewBox="0 0 300 300" version="1.1">
<defs>
<g>
<symbol overflow="visible" id="glyph0-0">
<path style="stroke:none;" d="M 0.640625 2.296875 L 0.640625 -9.171875 L 7.140625 -9.171875 L 7.140625 2.296875 Z M 1.375 1.578125 L 6.421875 1.578125 L 6.421875 -8.4375 L 1.375 -8.4375 Z M 1.375 1.578125 "/>
</symbol>
<symbol overflow="visible" id="glyph0-1">
<path style="stroke:none;" d="M 5.125 -8.609375 C 4.1875 -8.609375 3.441406 -8.257812 2.890625 -7.5625 C 2.347656 -6.875 2.078125 -5.929688 2.078125 -4.734375 C 2.078125 -3.535156 2.347656 -2.585938 2.890625 -1.890625 C 3.441406 -1.203125 4.1875 -0.859375 5.125 -0.859375 C 6.050781 -0.859375 6.785156 -1.203125 7.328125 -1.890625 C 7.878906 -2.585938 8.15625 -3.535156 8.15625 -4.734375 C 8.15625 -5.929688 7.878906 -6.875 7.328125 -7.5625 C 6.785156 -8.257812 6.050781 -8.609375 5.125 -8.609375 Z M 5.125 -9.65625 C 6.445312 -9.65625 7.503906 -9.207031 8.296875 -8.3125 C 9.097656 -7.414062 9.5 -6.222656 9.5 -4.734375 C 9.5 -3.234375 9.097656 -2.035156 8.296875 -1.140625 C 7.503906 -0.253906 6.445312 0.1875 5.125 0.1875 C 3.789062 0.1875 2.722656 -0.253906 1.921875 -1.140625 C 1.128906 -2.035156 0.734375 -3.234375 0.734375 -4.734375 C 0.734375 -6.222656 1.128906 -7.414062 1.921875 -8.3125 C 2.722656 -9.207031 3.789062 -9.65625 5.125 -9.65625 Z M 5.125 -9.65625 "/>
</symbol>
<symbol overflow="visible" id="glyph0-2">
<path style="stroke:none;" d="M 1.28125 -9.484375 L 3 -9.484375 L 7.203125 -1.546875 L 7.203125 -9.484375 L 8.453125 -9.484375 L 8.453125 0 L 6.71875 0 L 2.515625 -7.921875 L 2.515625 0 L 1.28125 0 Z M 1.28125 -9.484375 "/>
</symbol>
<symbol overflow="visible" id="glyph1-0">
<path style="stroke:none;" d="M 0.546875 1.9375 L 0.546875 -7.75 L 6.046875 -7.75 L 6.046875 1.9375 Z M 1.171875 1.328125 L 5.4375 1.328125 L 5.4375 -7.140625 L 1.171875 -7.140625 Z M 1.171875 1.328125 "/>
</symbol>
<symbol overflow="visible" id="glyph1-1">
<path style="stroke:none;" d="M 5.0625 -6.890625 L 5.0625 -3.90625 L 8.046875 -3.90625 L 8.046875 -2.984375 L 5.0625 -2.984375 L 5.0625 0 L 4.15625 0 L 4.15625 -2.984375 L 1.171875 -2.984375 L 1.171875 -3.90625 L 4.15625 -3.90625 L 4.15625 -6.890625 Z M 5.0625 -6.890625 "/>
</symbol>
<symbol overflow="visible" id="glyph1-2">
<path style="stroke:none;" d="M 0.53125 -3.453125 L 3.4375 -3.453125 L 3.4375 -2.578125 L 0.53125 -2.578125 Z M 0.53125 -3.453125 "/>
</symbol>
</g>
</defs>
<g id="surface13389">
<rect x="0" y="0" width="300" height="300" style="fill:rgb(100%,100%,100%);fill-opacity:1;stroke:none;"/>
<path style="fill:none;stroke-width:1.2;stroke-linecap:butt;stroke-linejoin:miter;stroke:rgb(100%,0%,0%);stroke-opacity:1;stroke-miterlimit:10;" d="M 231.058594 224.960938 L 225.277344 209.605469 "/>
<path style="fill:none;stroke-width:1.2;stroke-linecap:butt;stroke-linejoin:miter;stroke:rgb(0%,0%,0%);stroke-opacity:1;stroke-miterlimit:10;" d="M 225.277344 209.605469 L 219.492188 194.246094 "/>
<path style="fill:none;stroke-width:1.2;stroke-linecap:butt;stroke-linejoin:miter;stroke:rgb(0%,0%,0%);stroke-opacity:1;stroke-miterlimit:10;" d="M 205.421875 245.453125 L 218.242188 235.207031 "/>
<path style="fill:none;stroke-width:1.2;stroke-linecap:butt;stroke-linejoin:miter;stroke:rgb(100%,0%,0%);stroke-opacity:1;stroke-miterlimit:10;" d="M 218.242188 235.207031 L 231.058594 224.960938 "/>
<path style=" stroke:none;fill-rule:nonzero;fill:rgb(100%,100%,100%);fill-opacity:1;" d="M 226.058594 216.960938 L 237.058594 216.960938 L 237.058594 232.960938 L 226.058594 232.960938 Z M 226.058594 216.960938 "/>
<g style="fill:rgb(100%,0%,0%);fill-opacity:1;">
  <use xlink:href="#glyph0-1" x="226.058594" y="229.336914"/>
</g>
<path style="fill:none;stroke-width:1.2;stroke-linecap:butt;stroke-linejoin:miter;stroke:rgb(0%,0%,0%);stroke-opacity:1;stroke-miterlimit:10;" d="M 219.492188 194.246094 L 234.578125 165.101562 "/>
<path style="fill:none;stroke-width:1.2;stroke-linecap:butt;stroke-linejoin:miter;stroke:rgb(0%,0%,0%);stroke-opacity:1;stroke-miterlimit:10;" d="M 214.144531 187.785156 L 226.210938 164.464844 "/>
<path style="fill:none;stroke-width:1.2;stroke-linecap:butt;stroke-linejoin:miter;stroke:rgb(0%,0%,0%);stroke-opacity:1;stroke-miterlimit:10;" d="M 186.707031 195.757812 L 219.492188 194.246094 "/>
<path style="fill:none;stroke-width:1.2;stroke-linecap:butt;stroke-linejoin:miter;stroke:rgb(0%,0%,0%);stroke-opacity:1;stroke-miterlimit:10;" d="M 234.578125 165.101562 L 216.878906 137.460938 "/>
<path style="fill:none;stroke-width:1.2;stroke-linecap:butt;stroke-linejoin:miter;stroke:rgb(0%,0%,0%);stroke-opacity:1;stroke-miterlimit:10;" d="M 216.878906 137.460938 L 184.09375 138.96875 "/>
<path style="fill:none;stroke-width:1.2;stroke-linecap:butt;stroke-linejoin:miter;stroke:rgb(0%,0%,0%);stroke-opacity:1;stroke-miterlimit:10;" d="M 213.953125 145.328125 L 187.726562 146.535156 "/>
<path style="fill:none;stroke-width:1.2;stroke-linecap:butt;stroke-linejoin:miter;stroke:rgb(0%,0%,0%);stroke-opacity:1;stroke-miterlimit:10;" d="M 216.878906 137.460938 L 231.964844 108.3125 "/>
<path style="fill:none;stroke-width:1.2;stroke-linecap:butt;stroke-linejoin:miter;stroke:rgb(0%,0%,0%);stroke-opacity:1;stroke-miterlimit:10;" d="M 184.09375 138.96875 L 169.007812 168.117188 "/>
<path style="fill:none;stroke-width:1.2;stroke-linecap:butt;stroke-linejoin:miter;stroke:rgb(0%,0%,0%);stroke-opacity:1;stroke-miterlimit:10;" d="M 166.394531 111.332031 L 184.09375 138.96875 "/>
<path style="fill:none;stroke-width:1.2;stroke-linecap:butt;stroke-linejoin:miter;stroke:rgb(0%,0%,0%);stroke-opacity:1;stroke-miterlimit:10;" d="M 169.007812 168.117188 L 136.222656 169.628906 "/>
<path style="fill:none;stroke-width:1.2;stroke-linecap:butt;stroke-linejoin:miter;stroke:rgb(0%,0%,0%);stroke-opacity:1;stroke-miterlimit:10;" d="M 169.007812 168.117188 L 186.707031 195.757812 "/>
<path style="fill:none;stroke-width:1.2;stroke-linecap:butt;stroke-linejoin:miter;stroke:rgb(0%,0%,0%);stroke-opacity:1;stroke-miterlimit:10;" d="M 177.28125 166.71875 L 191.441406 188.828125 "/>
<path style="fill:none;stroke-width:1.2;stroke-linecap:butt;stroke-linejoin:miter;stroke:rgb(0%,0%,0%);stroke-opacity:1;stroke-miterlimit:10;" d="M 136.222656 169.628906 L 118.519531 141.988281 "/>
<path style="fill:none;stroke-width:1.2;stroke-linecap:butt;stroke-linejoin:miter;stroke:rgb(0%,0%,0%);stroke-opacity:1;stroke-miterlimit:10;" d="M 127.949219 171.027344 L 113.789062 148.917969 "/>
<path style="fill:none;stroke-width:1.2;stroke-linecap:butt;stroke-linejoin:miter;stroke:rgb(0%,0%,0%);stroke-opacity:1;stroke-miterlimit:10;" d="M 121.136719 198.777344 L 136.222656 169.628906 "/>
<path style="fill:none;stroke-width:1.2;stroke-linecap:butt;stroke-linejoin:miter;stroke:rgb(0%,0%,0%);stroke-opacity:1;stroke-miterlimit:10;" d="M 118.519531 141.988281 L 133.605469 112.839844 "/>
<path style="fill:none;stroke-width:1.2;stroke-linecap:butt;stroke-linejoin:miter;stroke:rgb(0%,0%,0%);stroke-opacity:1;stroke-miterlimit:10;" d="M 118.519531 141.988281 L 85.734375 143.5 "/>
<path style="fill:none;stroke-width:1.2;stroke-linecap:butt;stroke-linejoin:miter;stroke:rgb(0%,0%,0%);stroke-opacity:1;stroke-miterlimit:10;" d="M 133.605469 112.839844 L 166.394531 111.332031 "/>
<path style="fill:none;stroke-width:1.2;stroke-linecap:butt;stroke-linejoin:miter;stroke:rgb(0%,0%,0%);stroke-opacity:1;stroke-miterlimit:10;" d="M 137.242188 120.40625 L 163.46875 119.195312 "/>
<path style="fill:none;stroke-width:1.2;stroke-linecap:butt;stroke-linejoin:miter;stroke:rgb(0%,0%,0%);stroke-opacity:1;stroke-miterlimit:10;" d="M 166.394531 111.332031 L 173.9375 96.757812 "/>
<path style="fill:none;stroke-width:1.2;stroke-linecap:butt;stroke-linejoin:miter;stroke:rgb(0%,0%,100%);stroke-opacity:1;stroke-miterlimit:10;" d="M 173.9375 96.757812 L 181.480469 82.183594 "/>
<path style="fill:none;stroke-width:1.2;stroke-linecap:butt;stroke-linejoin:miter;stroke:rgb(0%,0%,100%);stroke-opacity:1;stroke-miterlimit:10;" d="M 182.125 85.992188 L 192.738281 84.1875 "/>
<path style="fill:none;stroke-width:1.2;stroke-linecap:butt;stroke-linejoin:miter;stroke:rgb(100%,0%,0%);stroke-opacity:1;stroke-miterlimit:10;" d="M 192.738281 84.1875 L 203.355469 82.386719 "/>
<path style="fill:none;stroke-width:1.2;stroke-linecap:butt;stroke-linejoin:miter;stroke:rgb(0%,0%,100%);stroke-opacity:1;stroke-miterlimit:10;" d="M 180.832031 78.378906 L 191.445312 76.574219 "/>
<path style="fill:none;stroke-width:1.2;stroke-linecap:butt;stroke-linejoin:miter;stroke:rgb(100%,0%,0%);stroke-opacity:1;stroke-miterlimit:10;" d="M 191.445312 76.574219 L 202.0625 74.773438 "/>
<path style="fill:none;stroke-width:1.2;stroke-linecap:butt;stroke-linejoin:miter;stroke:rgb(0%,0%,100%);stroke-opacity:1;stroke-miterlimit:10;" d="M 181.480469 82.183594 L 172.628906 68.363281 "/>
<path style="fill:none;stroke-width:1.2;stroke-linecap:butt;stroke-linejoin:miter;stroke:rgb(100%,0%,0%);stroke-opacity:1;stroke-miterlimit:10;" d="M 172.628906 68.363281 L 163.777344 54.546875 "/>
<path style=" stroke:none;fill-rule:nonzero;fill:rgb(100%,100%,100%);fill-opacity:1;" d="M 171.480469 72.683594 L 191.480469 72.683594 L 191.480469 91.683594 L 171.480469 91.683594 Z M 171.480469 72.683594 "/>
<g style="fill:rgb(0%,0%,100%);fill-opacity:1;">
  <use xlink:href="#glyph0-2" x="171.480469" y="87.878906"/>
</g>
<g style="fill:rgb(0%,0%,100%);fill-opacity:1;">
  <use xlink:href="#glyph1-1" x="181.450195" y="82.996094"/>
</g>
<path style=" stroke:none;fill-rule:nonzero;fill:rgb(100%,100%,100%);fill-opacity:1;" d="M 197.707031 70.578125 L 208.707031 70.578125 L 208.707031 86.578125 L 197.707031 86.578125 Z M 197.707031 70.578125 "/>
<g style="fill:rgb(100%,0%,0%);fill-opacity:1;">
  <use xlink:href="#glyph0-1" x="197.707031" y="82.954102"/>
</g>
<path style=" stroke:none;fill-rule:nonzero;fill:rgb(100%,100%,100%);fill-opacity:1;" d="M 148.777344 45.046875 L 163.777344 45.046875 L 163.777344 64.046875 L 148.777344 64.046875 Z M 148.777344 45.046875 "/>
<g style="fill:rgb(100%,0%,0%);fill-opacity:1;">
  <use xlink:href="#glyph1-2" x="148.777344" y="55.359375"/>
</g>
<g style="fill:rgb(100%,0%,0%);fill-opacity:1;">
  <use xlink:href="#glyph0-1" x="152.786133" y="60.242188"/>
</g>
<path style="fill:none;stroke-width:1.2;stroke-linecap:butt;stroke-linejoin:miter;stroke:rgb(0%,0%,0%);stroke-opacity:1;stroke-miterlimit:10;" d="M 85.734375 143.5 L 76.886719 129.679688 "/>
<path style="fill:none;stroke-width:1.2;stroke-linecap:butt;stroke-linejoin:miter;stroke:rgb(100%,0%,0%);stroke-opacity:1;stroke-miterlimit:10;" d="M 76.886719 129.679688 L 68.035156 115.859375 "/>
<path style="fill:none;stroke-width:1.2;stroke-linecap:butt;stroke-linejoin:miter;stroke:rgb(0%,0%,0%);stroke-opacity:1;stroke-miterlimit:10;" d="M 85.734375 143.5 L 70.648438 172.644531 "/>
<path style="fill:none;stroke-width:1.2;stroke-linecap:butt;stroke-linejoin:miter;stroke:rgb(0%,0%,0%);stroke-opacity:1;stroke-miterlimit:10;" d="M 91.085938 149.960938 L 79.015625 173.28125 "/>
<path style="fill:none;stroke-width:1.2;stroke-linecap:butt;stroke-linejoin:miter;stroke:rgb(100%,0%,0%);stroke-opacity:1;stroke-miterlimit:10;" d="M 68.035156 115.859375 L 51.644531 116.613281 "/>
<path style="fill:none;stroke-width:1.2;stroke-linecap:butt;stroke-linejoin:miter;stroke:rgb(0%,0%,0%);stroke-opacity:1;stroke-miterlimit:10;" d="M 51.644531 116.613281 L 35.25 117.367188 "/>
<path style=" stroke:none;fill-rule:nonzero;fill:rgb(100%,100%,100%);fill-opacity:1;" d="M 63.035156 107.859375 L 74.035156 107.859375 L 74.035156 123.859375 L 63.035156 123.859375 Z M 63.035156 107.859375 "/>
<g style="fill:rgb(100%,0%,0%);fill-opacity:1;">
  <use xlink:href="#glyph0-1" x="63.035156" y="120.235352"/>
</g>
<path style="fill:none;stroke-width:1.2;stroke-linecap:butt;stroke-linejoin:miter;stroke:rgb(0%,0%,0%);stroke-opacity:1;stroke-miterlimit:10;" d="M 70.648438 172.644531 L 88.347656 200.285156 "/>
<path style="fill:none;stroke-width:1.2;stroke-linecap:butt;stroke-linejoin:miter;stroke:rgb(0%,0%,0%);stroke-opacity:1;stroke-miterlimit:10;" d="M 88.347656 200.285156 L 121.136719 198.777344 "/>
<path style="fill:none;stroke-width:1.2;stroke-linecap:butt;stroke-linejoin:miter;stroke:rgb(0%,0%,0%);stroke-opacity:1;stroke-miterlimit:10;" d="M 91.273438 192.417969 L 117.5 191.210938 "/>
<path style="fill:none;stroke-width:1.2;stroke-linecap:butt;stroke-linejoin:miter;stroke:rgb(0%,0%,0%);stroke-opacity:1;stroke-miterlimit:10;" d="M 186.707031 195.757812 L 182.359375 211.582031 "/>
<path style="fill:none;stroke-width:1.2;stroke-linecap:butt;stroke-linejoin:miter;stroke:rgb(100%,0%,0%);stroke-opacity:1;stroke-miterlimit:10;" d="M 182.359375 211.582031 L 178.011719 227.40625 "/>
<path style="fill:none;stroke-width:1.2;stroke-linecap:butt;stroke-linejoin:miter;stroke:rgb(100%,0%,0%);stroke-opacity:1;stroke-miterlimit:10;" d="M 178.011719 227.40625 L 191.714844 236.429688 "/>
<path style="fill:none;stroke-width:1.2;stroke-linecap:butt;stroke-linejoin:miter;stroke:rgb(0%,0%,0%);stroke-opacity:1;stroke-miterlimit:10;" d="M 191.714844 236.429688 L 205.421875 245.453125 "/>
<path style=" stroke:none;fill-rule:nonzero;fill:rgb(100%,100%,100%);fill-opacity:1;" d="M 173.011719 219.40625 L 184.011719 219.40625 L 184.011719 235.40625 L 173.011719 235.40625 Z M 173.011719 219.40625 "/>
<g style="fill:rgb(100%,0%,0%);fill-opacity:1;">
  <use xlink:href="#glyph0-1" x="173.011719" y="231.782227"/>
</g>
<path style="fill:none;stroke-width:1.2;stroke-linecap:butt;stroke-linejoin:miter;stroke:rgb(0%,0%,0%);stroke-opacity:1;stroke-miterlimit:10;" d="M 235.445312 106.644531 L 230.789062 96.9375 "/>
<path style="fill:none;stroke-width:1.2;stroke-linecap:butt;stroke-linejoin:miter;stroke:rgb(100%,0%,0%);stroke-opacity:1;stroke-miterlimit:10;" d="M 230.789062 96.9375 L 226.128906 87.230469 "/>
<path style="fill:none;stroke-width:1.2;stroke-linecap:butt;stroke-linejoin:miter;stroke:rgb(0%,0%,0%);stroke-opacity:1;stroke-miterlimit:10;" d="M 228.484375 109.984375 L 223.824219 100.277344 "/>
<path style="fill:none;stroke-width:1.2;stroke-linecap:butt;stroke-linejoin:miter;stroke:rgb(100%,0%,0%);stroke-opacity:1;stroke-miterlimit:10;" d="M 223.824219 100.277344 L 219.167969 90.570312 "/>
<path style="fill:none;stroke-width:1.2;stroke-linecap:butt;stroke-linejoin:miter;stroke:rgb(0%,0%,0%);stroke-opacity:1;stroke-miterlimit:10;" d="M 231.964844 108.3125 L 248.355469 107.558594 "/>
<path style="fill:none;stroke-width:1.2;stroke-linecap:butt;stroke-linejoin:miter;stroke:rgb(100%,0%,0%);stroke-opacity:1;stroke-miterlimit:10;" d="M 248.355469 107.558594 L 264.75 106.804688 "/>
<path style=" stroke:none;fill-rule:nonzero;fill:rgb(100%,100%,100%);fill-opacity:1;" d="M 211.648438 80.898438 L 222.648438 80.898438 L 222.648438 96.898438 L 211.648438 96.898438 Z M 211.648438 80.898438 "/>
<g style="fill:rgb(100%,0%,0%);fill-opacity:1;">
  <use xlink:href="#glyph0-1" x="211.648438" y="93.274414"/>
</g>
<path style=" stroke:none;fill-rule:nonzero;fill:rgb(100%,100%,100%);fill-opacity:1;" d="M 257.75 97.304688 L 272.75 97.304688 L 272.75 116.304688 L 257.75 116.304688 Z M 257.75 97.304688 "/>
<g style="fill:rgb(100%,0%,0%);fill-opacity:1;">
  <use xlink:href="#glyph0-1" x="257.75" y="112.5"/>
</g>
<g style="fill:rgb(100%,0%,0%);fill-opacity:1;">
  <use xlink:href="#glyph1-2" x="268.240234" y="107.617188"/>
</g>
</g>
</svg>

<svg xmlns="http://www.w3.org/2000/svg" xmlns:xlink="http://www.w3.org/1999/xlink" width="300pt" height="300pt" viewBox="0 0 300 300"><defs><symbol overflow="visible"><path d="M.64 2.297v-11.47h6.5v11.47zm.735-.72h5.047V-8.436H1.375zm0 0"/></symbol><symbol overflow="visible" id="a"><path d="M5.125-8.61c-.938 0-1.684.352-2.234 1.047-.542.688-.812 1.633-.812 2.83 0 1.198.27 2.147.813 2.842.55.687 1.297 1.03 2.235 1.03.926 0 1.66-.343 2.203-1.03.55-.696.828-1.645.828-2.844 0-1.196-.277-2.14-.828-2.829-.543-.695-1.277-1.046-2.203-1.046zm0-1.046c1.32 0 2.38.45 3.172 1.344.8.898 1.203 2.09 1.203 3.578 0 1.5-.402 2.7-1.203 3.593C7.504-.255 6.445.186 5.125.186c-1.336 0-2.402-.44-3.203-1.328C1.13-2.036.734-3.235.734-4.735c0-1.49.395-2.68 1.188-3.579.8-.894 1.867-1.343 3.203-1.343zm0 0"/></symbol><symbol overflow="visible" id="b"><path d="M1.28-9.484H3l4.203 7.937v-7.937h1.25V0H6.72L2.515-7.922V0H1.28zm0 0"/></symbol><symbol overflow="visible"><path d="M.547 1.938V-7.75h5.5v9.688zm.625-.61h4.266v-8.47H1.171zm0 0"/></symbol><symbol overflow="visible" id="c"><path d="M5.063-6.89v2.984h2.984v.922H5.062V0h-.906v-2.984H1.172v-.922h2.984V-6.89zm0 0"/></symbol><symbol overflow="visible" id="d"><path d="M.53-3.453h2.907v.875H.53zm0 0"/></symbol></defs><g><path fill="#fff" d="M0 0h300v300H0z"/><path d="M231.06 224.96l-5.783-15.355" stroke-width="1.2" stroke="#f00" stroke-miterlimit="10" fill="none"/><path d="M225.277 209.605l-5.785-15.36M205.422 245.453l12.82-10.246" stroke-width="1.2" stroke="#000" stroke-miterlimit="10" fill="none"/><path d="M218.242 235.207l12.817-10.246" stroke-width="1.2" stroke="#f00" stroke-miterlimit="10" fill="none"/><path d="M226.06 216.96h11v16h-11zm0 0" fill="#fff"/><use xlink:href="#a" x="226.059" y="229.337" fill="#f00"/><path d="M219.492 194.246l15.086-29.144M214.145 187.785l12.066-23.32M186.707 195.758l32.785-1.512M234.578 165.102l-17.7-27.64M216.88 137.46l-32.786 1.51M213.953 145.328l-26.226 1.207M216.88 137.46l15.085-29.148M184.094 138.97l-15.086 29.147M166.395 111.332l17.7 27.637M169.008 168.117l-32.785 1.512M169.008 168.117l17.7 27.64M177.28 166.72l14.16 22.108M136.223 169.63l-17.703-27.642M127.95 171.027l-14.16-22.11M121.137 198.777l15.086-29.148M118.52 141.988l15.085-29.148M118.52 141.988L85.734 143.5M133.605 112.84l32.79-1.508M137.242 120.406l26.227-1.21M166.395 111.332l7.542-14.574" stroke-width="1.2" stroke="#000" stroke-miterlimit="10" fill="none"/><path d="M173.938 96.758l7.542-14.574M182.125 85.992l10.613-1.805" stroke-width="1.2" stroke="#00f" stroke-miterlimit="10" fill="none"/><path d="M192.738 84.188l10.617-1.8" stroke-width="1.2" stroke="#f00" stroke-miterlimit="10" fill="none"/><path d="M180.832 78.38l10.613-1.806" stroke-width="1.2" stroke="#00f" stroke-miterlimit="10" fill="none"/><path d="M191.445 76.574l10.618-1.8" stroke-width="1.2" stroke="#f00" stroke-miterlimit="10" fill="none"/><path d="M181.48 82.184l-8.85-13.82" stroke-width="1.2" stroke="#00f" stroke-miterlimit="10" fill="none"/><path d="M172.63 68.363l-8.853-13.816" stroke-width="1.2" stroke="#f00" stroke-miterlimit="10" fill="none"/><path d="M171.48 72.684h20v19h-20zm0 0" fill="#fff"/><use xlink:href="#b" x="171.48" y="87.879" fill="#00f"/><use xlink:href="#c" x="181.45" y="82.996" fill="#00f"/><path d="M197.707 70.578h11v16h-11zm0 0" fill="#fff"/><use xlink:href="#a" x="197.707" y="82.954" fill="#f00"/><path d="M148.777 45.047h15v19h-15zm0 0" fill="#fff"/><use xlink:href="#d" x="148.777" y="55.359" fill="#f00"/><use xlink:href="#a" x="152.786" y="60.242" fill="#f00"/><path d="M85.734 143.5l-8.847-13.82" stroke-width="1.2" stroke="#000" stroke-miterlimit="10" fill="none"/><path d="M76.887 129.68l-8.852-13.82" stroke-width="1.2" stroke="#f00" stroke-miterlimit="10" fill="none"/><path d="M85.734 143.5l-15.086 29.145M91.086 149.96l-12.07 23.32" stroke-width="1.2" stroke="#000" stroke-miterlimit="10" fill="none"/><path d="M68.035 115.86l-16.39.753" stroke-width="1.2" stroke="#f00" stroke-miterlimit="10" fill="none"/><path d="M51.645 116.613l-16.395.754" stroke-width="1.2" stroke="#000" stroke-miterlimit="10" fill="none"/><path d="M63.035 107.86h11v16h-11zm0 0" fill="#fff"/><use xlink:href="#a" x="63.035" y="120.235" fill="#f00"/><path d="M70.648 172.645l17.7 27.64M88.348 200.285l32.79-1.508M91.273 192.418l26.227-1.207M186.707 195.758l-4.348 15.824" stroke-width="1.2" stroke="#000" stroke-miterlimit="10" fill="none"/><path d="M182.36 211.582l-4.348 15.824M178.012 227.406l13.703 9.024" stroke-width="1.2" stroke="#f00" stroke-miterlimit="10" fill="none"/><path d="M191.715 236.43l13.707 9.023" stroke-width="1.2" stroke="#000" stroke-miterlimit="10" fill="none"/><path d="M173.012 219.406h11v16h-11zm0 0" fill="#fff"/><use xlink:href="#a" x="173.012" y="231.782" fill="#f00"/><path d="M235.445 106.645l-4.656-9.707" stroke-width="1.2" stroke="#000" stroke-miterlimit="10" fill="none"/><path d="M230.79 96.938l-4.66-9.708" stroke-width="1.2" stroke="#f00" stroke-miterlimit="10" fill="none"/><path d="M228.484 109.984l-4.66-9.707" stroke-width="1.2" stroke="#000" stroke-miterlimit="10" fill="none"/><path d="M223.824 100.277l-4.656-9.707" stroke-width="1.2" stroke="#f00" stroke-miterlimit="10" fill="none"/><path d="M231.965 108.313l16.39-.754" stroke-width="1.2" stroke="#000" stroke-miterlimit="10" fill="none"/><path d="M248.355 107.56l16.395-.755" stroke-width="1.2" stroke="#f00" stroke-miterlimit="10" fill="none"/><path d="M211.648 80.898h11v16h-11zm0 0" fill="#fff"/><use xlink:href="#a" x="211.648" y="93.274" fill="#f00"/><path d="M257.75 97.305h15v19h-15zm0 0" fill="#fff"/><use xlink:href="#a" x="257.75" y="112.5" fill="#f00"/><use xlink:href="#d" x="268.24" y="107.617" fill="#f00"/></g></svg>
